src/pos-icons/file.svg

<svg height="24" viewBox="0 0 24 24" width="24" xmlns="http://www.w3.org/2000/svg"><path d="m13 9v-5.5l5.5 5.5m-12.5-7c-1.11 0-2 .89-2 2v16a2 2 0 0 0 2 2h12a2 2 0 0 0 2-2v-12l-6-6z"/></svg>

<?xml version="1.0" encoding="UTF-8"?><!DOCTYPE svg PUBLIC "-//W3C//DTD SVG 1.1//EN" "http://www.w3.org/Graphics/SVG/1.1/DTD/svg11.dtd"><svg xmlns="http://www.w3.org/2000/svg" xmlns:xlink="http://www.w3.org/1999/xlink" version="1.1" id="mdi-file" width="24" height="24" viewBox="0 0 24 24"><path d="M13,9V3.5L18.5,9M6,2C4.89,2 4,2.89 4,4V20A2,2 0 0,0 6,22H18A2,2 0 0,0 20,20V8L14,2H6Z" /></svg>
